icons/evolvere-blue-folders-flat-vivid-dark-fallback/apps/64/help-contents.svg

<?xml version="1.0" encoding="UTF-8" standalone="no"?>
<!-- Created with Inkscape (http://www.inkscape.org/) -->

<svg
   xmlns:dc="http://purl.org/dc/elements/1.1/"
   xmlns:cc="http://creativecommons.org/ns#"
   xmlns:rdf="http://www.w3.org/1999/02/22-rdf-syntax-ns#"
   xmlns:svg="http://www.w3.org/2000/svg"
   xmlns="http://www.w3.org/2000/svg"
   xmlns:sodipodi="http://sodipodi.sourceforge.net/DTD/sodipodi-0.dtd"
   xmlns:inkscape="http://www.inkscape.org/namespaces/inkscape"
   width="64"
   height="64"
   id="svg13094"
   version="1.1"
   inkscape:version="0.91+devel r"
   sodipodi:docname="help-contents.svg">
  <sodipodi:namedview
     id="base"
     pagecolor="#ffffff"
     bordercolor="#666666"
     borderopacity="1.0"
     inkscape:pageopacity="0"
     inkscape:pageshadow="2"
     inkscape:zoom="11.313709"
     inkscape:cx="37.56343"
     inkscape:cy="32.147214"
     inkscape:document-units="px"
     inkscape:current-layer="svg13094"
     showgrid="true"
     inkscape:snap-bbox="true"
     inkscape:bbox-paths="true"
     inkscape:bbox-nodes="true"
     inkscape:snap-bbox-edge-midpoints="true"
     inkscape:snap-bbox-midpoints="true"
     inkscape:object-paths="true"
     inkscape:snap-intersection-paths="true"
     inkscape:object-nodes="true"
     inkscape:snap-smooth-nodes="true"
     inkscape:snap-midpoints="true"
     inkscape:snap-object-midpoints="true"
     inkscape:snap-center="true"
     showguides="true"
     inkscape:guide-bbox="true"
     inkscape:window-width="1920"
     inkscape:window-height="1023"
     inkscape:window-x="-10"
     inkscape:window-y="35"
     inkscape:window-maximized="1"
     inkscape:snap-global="true"
     fit-margin-top="0"
     fit-margin-left="0"
     fit-margin-right="0"
     fit-margin-bottom="0"
     showborder="true"
     inkscape:showpageshadow="false"
     inkscape:snap-page="true">
    <inkscape:grid
       type="xygrid"
       id="grid3075"
       empspacing="5"
       visible="true"
       enabled="true"
       snapvisiblegridlinesonly="true"
       originx="0px"
       originy="18px" />
  </sodipodi:namedview>
  <defs
     id="defs13096" />
  <metadata
     id="metadata13099">
    <rdf:RDF>
      <cc:Work
         rdf:about="">
        <dc:format>image/svg+xml</dc:format>
        <dc:type
           rdf:resource="http://purl.org/dc/dcmitype/StillImage" />
        <dc:title></dc:title>
      </cc:Work>
    </rdf:RDF>
  </metadata>
  <path
     inkscape:connector-curvature="0"
     style="color:#000000;fill:#2db0cc;fill-opacity:1;fill-rule:nonzero;stroke:none;stroke-width:2.28571415;marker:none;visibility:visible;display:inline;overflow:visible;enable-background:accumulate"
     d="m 0,4 0,30 0,28 2,2 30,0 30,0 2,-2 L 64,34 64,4 32,4 0,4 z"
     id="path3443" />
  <path
     inkscape:connector-curvature="0"
     style="color:#000000;fill:#76e2f4;fill-opacity:1;fill-rule:nonzero;stroke:none;stroke-width:2.28571415;marker:none;visibility:visible;display:inline;overflow:visible;enable-background:accumulate"
     d="M 2,0 0,1 0,4 32,4 64,4 64,1 62,0 32,0 2,0 z"
     id="path3447" />
  <path
     style="fill:#8de7f6;fill-opacity:1;fill-rule:nonzero"
     d="M 0,3 0,6 2,4 Z"
     id="path4298"
     inkscape:connector-curvature="0"
     sodipodi:nodetypes="cccc" />
  <path
     d="M 64,6 62,4 64,3 z"
     id="path3028"
     style="fill:#51c8df;fill-opacity:1"
     inkscape:connector-curvature="0" />
  <g
     id="g3043"
     inkscape:export-filename="folder.png"
     inkscape:export-xdpi="90"
     inkscape:export-ydpi="90"
     transform="translate(-0.625,0.082283)" />
  <g
     id="scalable"
     transform="matrix(1.0385892,0,0,1.0385892,1214.7222,1878.8121)"
     inkscape:label="#g3701"
     style="fill:#ffffff" />
  <path
     style="color:#000000;fill:#d7f9ff;fill-opacity:1;fill-rule:nonzero;stroke:none;stroke-width:1;marker:none;visibility:visible;display:inline;overflow:visible;enable-background:accumulate"
     d="m 21.03121,17.001972 a 3.0003109,3.0003109 0 0 0 -2.375008,1.656255 l -3.000011,6.000023 5.375019,2.687507 2.187508,-4.343764 19.125069,0 0,6.968775 -13.125047,5.250019 a 3.0003109,3.0003109 0 0 0 -1.875006,2.78126 l 0,6.000022 6.000021,0 0,-3.968765 13.125048,-5.25002 a 3.0003109,3.0003109 0 0 0 1.875006,-2.78126 l 0,-12.000042 a 3.0003109,3.0003109 0 0 0 -3.000011,-3.00001 l -24.000086,0 a 3.0003109,3.0003109 0 0 0 -0.312502,0 z m 6.312524,30.000107 0,2.87501 0,0.250001 c 0,1.593513 1.281497,2.87501 2.87501,2.87501 l 3.250012,0 c 1.593513,0 2.87501,-1.281497 2.87501,-2.87501 l 0,-0.250001 c 0,-1.593513 -1.281497,-2.87501 -2.87501,-2.87501 l -6.125023,0 z"
     id="path3795"
     inkscape:connector-curvature="0" />
</svg>

<svg xmlns="http://www.w3.org/2000/svg" viewBox="0 0 64 64"><g color="#000"><path d="m0 4v30 28l2 2h30 30l2-2v-28-30h-32-32" fill="#2db0cc"/><path d="m2 0l-2 1v3h32 32v-3l-2-1h-30-30" fill="#76e2f4"/></g><path d="m0 3v3l2-2" fill="#8de7f6"/><path d="m64 6l-2-2 2-1z" fill="#51c8df"/><path d="m21.03121 17.00197a3.00031 3.00031 0 0 0 -2.375008 1.656255l-3 6 5.375 2.688 2.188-4.344h19.13v6.969l-13.13 5.25a3.00031 3.00031 0 0 0 -1.875006 2.78126v6h6v-3.969l13.13-5.25a3.00031 3.00031 0 0 0 1.875006 -2.78126v-12a3.00031 3.00031 0 0 0 -3.00001 -3.00001h-24a3.00031 3.00031 0 0 0 -.312502 0m6.313 30v2.875.25c0 1.594 1.281 2.875 2.875 2.875h3.25c1.594 0 2.875-1.281 2.875-2.875v-.25c0-1.594-1.281-2.875-2.875-2.875h-6.125" fill="#d7f9ff" color="#000"/></svg>
